X: 33083
T: Primrose Lasses, The
R: reel
M: 4/4
K: Amajor
c3 B BAFA|EFAB cB B2|fc c/c/c BcAF|EFAB cAAB:|
c3 f feae|feae fede|B c2 f feae|ffBd cAAB|
ce e/e/e feae|f2 fa fece|agfe f2 af|ecBd cAAB||

